svgs/thin/file-plus.svg

<svg xmlns="http://www.w3.org/2000/svg" viewBox="0 0 384 512"><!-- Font Awesome Pro 6.0.0-alpha2 by @fontawesome - https://fontawesome.com License - https://fontawesome.com/license (Commercial License) --><path d="M374.633 150.625L233.375 9.375C227.375 3.371 219.234 0 210.75 0H64C28.656 0 0 28.652 0 64V448C0 483.344 28.656 512 64 512H320C355.352 512 384 483.344 384 448V173.254C384 164.766 380.633 156.629 374.633 150.625ZM224 22.629L361.375 160H248C234.781 160 224 149.234 224 136V22.629ZM368 448C368 474.469 346.469 496 320 496H64C37.531 496 16 474.469 16 448V64C16 37.531 37.531 16 64 16H208V136C208 158.062 225.938 176 248 176H368V448ZM200 232C200 227.58 196.422 224 192 224C187.582 224 184 227.58 184 232V312H104C99.582 312 96 315.58 96 320C96 324.422 99.578 328 104 328H184V408C184 412.422 187.578 416 192 416S200 412.42 200 408V328H280C284.422 328 288 324.42 288 320S284.422 312 280 312H200V232Z"/></svg>

<svg xmlns="http://www.w3.org/2000/svg" viewBox="0 0 384 512"><!--! Font Awesome Pro 6.3.0 by @fontawesome - https://fontawesome.com License - https://fontawesome.com/license (Commercial License) Copyright 2023 Fonticons, Inc. --><path d="M374.6 150.6l-141.3-141.3C227.4 3.371 219.2 0 210.8 0H64C28.66 0 0 28.65 0 64l.0065 384c0 35.34 28.66 64 64 64H320c35.35 0 64-28.66 64-64V173.3C384 164.8 380.6 156.6 374.6 150.6zM224 22.63L361.4 160H248C234.8 160 224 149.2 224 136V22.63zM368 448c0 26.47-21.53 48-48 48H64c-26.47 0-48-21.53-48-48V64c0-26.47 21.53-48 48-48h144v120c0 22.06 17.94 40 40 40h120V448zM200 232C200 227.6 196.4 224 192 224C187.6 224 184 227.6 184 232v80h-80C99.58 312 96 315.6 96 320c0 4.422 3.578 8 8 8h80v80C184 412.4 187.6 416 192 416s8-3.58 8-8v-80h80c4.422 0 8-3.58 8-8s-3.578-8-8-8h-80V232z"/></svg>
